Sources/FrostedUI/Resources/Icons.xcassets/raiseHand32.imageset/raise-hand-32.svg

<svg width="32" height="32" viewBox="0 0 32 32" fill="none" xmlns="http://www.w3.org/2000/svg" data-fui-icon="true">
  <path
    d="M14.1289 3.25C15.577 3.25005 16.8178 4.13915 17.333 5.40137C17.9333 4.90158 18.7066 4.60156 19.5488 4.60156C21.4574 4.60187 23.0076 6.14537 23.0078 8.05371V10.0264C23.4677 9.82006 23.9845 9.75 24.5 9.75C25.3902 9.75003 26.2276 10.0696 26.8359 10.7412C27.439 11.4071 27.7499 12.3435 27.75 13.459V18.5273C27.7498 24.925 22.7023 29.7499 16.5 29.75C10.2976 29.75 5.25017 24.925 5.25 18.5273V9.40527C5.25007 7.49664 6.8011 5.95312 8.70996 5.95312C9.4383 5.95321 10.1141 6.17838 10.6719 6.5625C10.7456 4.719 12.267 3.25007 14.1289 3.25ZM14.1289 4.75C13.0448 4.75007 12.1689 5.62654 12.1689 6.70312V15.459C12.1689 15.8732 11.8331 16.2089 11.4189 16.209C11.0049 16.2088 10.6689 15.8731 10.6689 15.459V9.40527C10.6689 8.32884 9.79385 7.45334 8.70996 7.45312C7.62588 7.45312 6.75007 8.32871 6.75 9.40527V18.5273C6.75017 24.0753 11.1046 28.25 16.5 28.25C21.8953 28.2499 26.2498 24.0753 26.25 18.5273V13.459C26.2499 12.6156 26.0179 12.0719 25.7246 11.748C25.4365 11.43 25.0233 11.25 24.5 11.25C23.8789 11.25 23.5538 11.3838 23.373 11.5605C23.2169 11.7134 23.0547 12.0103 23.0166 12.624L23.0078 12.9072L23.001 13.2646C22.9679 14.077 22.8217 14.7318 22.6045 15.2939C22.3588 15.9299 22.0326 16.4171 21.7461 16.832C21.1891 17.6385 20.75 18.2218 20.75 19.5C20.75 19.9142 20.4142 20.2499 20 20.25C19.5858 20.25 19.25 19.9142 19.25 19.5C19.25 17.7243 19.9398 16.8076 20.5117 15.9795C20.7896 15.5771 21.0284 15.2127 21.2061 14.7529C21.3811 14.2996 21.5078 13.722 21.5078 12.9072V8.05371C21.5076 6.97742 20.6326 6.10187 19.5488 6.10156C18.4648 6.10156 17.5891 6.97723 17.5889 8.05371V14.1084C17.5887 14.5224 17.2529 14.8582 16.8389 14.8584C16.4248 14.8584 16.089 14.5225 16.0889 14.1084V6.70312C16.0889 5.62653 15.213 4.75007 14.1289 4.75Z"
    fill="currentColor"
  />
</svg>

<svg xmlns="http://www.w3.org/2000/svg" width="32" height="32" fill="none" data-fui-icon="true" viewBox="0 0 32 32"><path fill="currentColor" d="M14.129 3.25a3.46 3.46 0 0 1 3.204 2.151c.6-.5 1.374-.8 2.216-.8a3.456 3.456 0 0 1 3.459 3.453v1.972c.46-.206.977-.276 1.492-.276.89 0 1.728.32 2.336.991.603.666.914 1.603.914 2.718v5.068c0 6.398-5.048 11.223-11.25 11.223S5.25 24.925 5.25 18.527V9.405a3.456 3.456 0 0 1 3.46-3.452c.728 0 1.404.225 1.962.61a3.457 3.457 0 0 1 3.457-3.313m0 1.5c-1.084 0-1.96.877-1.96 1.953v8.756a.75.75 0 0 1-1.5 0V9.405A1.956 1.956 0 0 0 8.71 7.453c-1.084 0-1.96.876-1.96 1.952v9.122c0 5.548 4.355 9.723 9.75 9.723s9.75-4.175 9.75-9.723V13.46c0-.843-.232-1.387-.525-1.711-.289-.318-.702-.498-1.225-.498-.621 0-.946.134-1.127.31-.156.153-.318.45-.356 1.064l-.01.283-.006.358c-.033.812-.18 1.467-.396 2.029-.246.636-.572 1.123-.859 1.538-.557.806-.996 1.39-.996 2.668a.75.75 0 0 1-1.5 0c0-1.776.69-2.692 1.262-3.52.278-.403.516-.767.694-1.227.175-.453.302-1.031.302-1.846V8.054a1.956 1.956 0 0 0-1.96-1.952c-1.083 0-1.959.875-1.96 1.952v6.054a.75.75 0 0 1-1.5 0V6.703a1.957 1.957 0 0 0-1.96-1.953"/></svg>
